X: 1
T: Da Shaalds o' Foula
O: Shetland
R: jig
M: 6/8
K: Em
(3D/E/F/| "G"G2G G2B |"G" edB "Am"A2B | "G"G2G G2A | "G"BAG "C"E2D|
  "G"E<GG G2B |"G" edB "D"A2B | "Em"G2A "C"B2c |1"D7"d3 d2 :|2"D7"d3 def||
|:"G"g2d B2d |"G" edB "D"A2f | "Em"g3 G2B | "Am"AGE "D"D2f|
 "G"g2d B2d |"G" edB "D"ABA  |  "Em"G2A "C"B2c |1"D"d3 def:|2 "D"d3 d2 |]
